X:1
T:24 Italian Songs and Arias
T:Che fiero costume
T:Giovanni Legrenzi (1626-1690) Alessandro Parisotti (1853-1913)
T:Che fiero costume
T:(24 Arie antiche) Arietta
T:Low voices
T:OpenScore (CC0)
T:OpenScore (CC0)
T:OpenScore (CC0)
T:OpenScore (CC0)
T:OpenScore (CC0)
T:OpenScore (CC0)
C:Giovanni Legrenzi (1626-1690)
Z:OpenScore (CC0)
%%score 1 { ( 2 5 ) | ( 3 4 ) }
L:1/8
Q:3/8=56
M:12/8
K:Ab
V:1 treble nm="Voice"
V:2 treble nm="Piano"
V:5 treble 
V:3 bass 
V:4 bass 
V:1
"^Allegretto con moto" z3 z z!mf!!>(! F | d c B A G!>)! F =E3/2 F/ G C =D E | %2
w: Che|fie- ro cos- tu- me d'a- li- ge- ro nu- me, chea|
!<(! F G A G A!<)! B!>(! A G3/2 F/!>)! F2!<(! G | A !>!B3/2 c/!<)!!f! c3- c2 z z2!p! =E | %4
w: for- za di pe- ne si fac- ciaa- do- rar, si|fac- ciaa- do- rar, _ chea|
!<(! F G A G A B!<)! A!>(! G3/2 F/!>)! F3- | F2 z z3 z6 | z6 z3 z2!mf![Q:3/8=52] A | %7
w: for- za di pe- ne si fac- ciaa- do- rar!|_|E|
 G F G _E C G c!>(! =d =A =B G!>)! c | %8
w: pur nell' ar- do- re il dio tra- di- to- re un|
"^espr."!>(! _A3/2 G/!>)! F !>!G F[Q:3/8=50] E E !>!=D3/2 E/[Q:3/8=48] C3- | %9
w: va- go sem- bian- te mi~ fe'i do la trar,|
 C2 z z2"^dol." c!>(! A3/2 G/!p! F!>)! G[Q:3/8=46] F =E | %10
w: _ un va- go sem- bian- te mi|
 =E !>!=D3/2 E/ C2[Q:3/8=54] z z3 z z[Q:3/8=56] F | %11
w: fe'i- do la- trar. Che|
!sfz! _d3/2!>(! c/ _B A!>)! G F =E3/2"^dim." F/ G C =D E | %12
w: fie- ro cos- tu- me d'a- li- ge- ro nu- me, chea|
!<(! F G A G A B!<)!!>(! A G3/2 F/ F2!>)! G |"^cresc." A!<(! !>!B3/2 c/!<)!!f! c3- c2 z z2!mf! =E | %14
w: for- za di pe- ne si fac- ciaa- do- rar, si|fac- cia- do- rar! _ Chea|
!<(! F G A G B d!<)!!f! c d3/2 c/ F2 z | z12 | z6[Q:3/8=52] z3 !fermata!z2!mf![Q:3/8=56] F | %17
w: for- za di pe- ne si fac- ciaa- do- rar!||Che|
!sfz! d c B A G F =E F G C =D E |!<(! F G A G!<)! A!>(! B A G3/2 F/!>)! F2"^cresc." G | %19
w: cru- do des- ti- no cheun cie- co bam- bi- no con|boc- ca di lat- te si fac- cia sti- mar, si|
 A !>!B3/2 c/!f! c3- c2 z z2!p! =E |!<(! F G A G A B!<)! A!>(! G3/2 F/!>)! F3- | F2 z z3 z6 | %22
w: fac- cia sti- mar, _ con|boc- ca di lat- te si fac- cia sti- mar!|_|
 z6 z3 z2!mf! A[Q:3/8=52] |"^un poco meno" G F G _E C G c =d!>(! =A =B G!>)! c | %24
w: Ma|ques- to ti- ran- no con bar- ba- roin- gan- no, en-|
"^espr."!>(! _A3/2!>)! G/ F !>!G F[Q:3/8=50] E E !>!=D3/2 E/ C3- | %25
w: tran- do per glioc- chi, mi fe' sos- pi- rar,|
 C2 z[Q:3/8=48] z2"^dol." c A3/2!>(! G/!p! F G[Q:3/8=47] F!>)! =E | %26
w: _ en tran- do per glioc- chi, mi|
 =E"^rit."[Q:3/8=46] !>!=D3/2 E/ .C2 z[Q:3/8=54] z3 z z!sfz![Q:1/4=84]"^Tempo I°" F | %27
w: fe' so- spi rar.- Che~|
!>(! _d3/2 c/ _B!>)!"^dim." A G F =E3/2 F/ G C =D E |!<(! F G A G!<)! A!>(! B A G3/2 F/ F2!>)! G | %29
w: cru- do des- ti- no cheun cie- co bam- bi- no con|boc- ca di lat- te si fac- cia sti- mar, si|
!<(! A !>!B3/2!<)! c/!f! c3- c2 z z2!p! =E | %30
w: fac- cia sti- mar, _ con|
!<(! F G[Q:3/8=52] A G A!<)![Q:3/8=48] d!f! c[Q:3/8=36] =d3/2 (!fermata!T=e/{=de} f2)[Q:3/8=54] z | %31
w: boc- ca di lat- te si fac- cia sti- mar!|
 z12 | z12[Q:3/8=52] |] %33
w: ||
V:2
!mf!!>(! z6!>)! |!sfz!!>(! ([B,DG]3!>)! [A,CF]2) z!p! x6 | %2
[K:treble] [F,A,F] z z z ([C=E][DF]) z E2 z!<(! ([A,F]G) | %3
 A [B,B]2!<)!!sfz! [C=Ec]2!f! ([E=e] .[Ff].[Gg].[Aa] [Gg]2) z | %4
!p!!<(! [CF]3 [DF]3!<)! =E2 z z ([A,C]F) |!mf!!>(! dcB AG!>)!F!<(! =E>FG [Cc][=D=d]!<)![=E=e] | %6
!<(! [Ff][Gg][Aa] [Gdfg]>a!<)!g!f!!>(! c'>d'c' f'2!>)! z | %7
 [=DG]3 [C_E]2 z!>(! [C^Fc]3 [DG=B]2!>)! [CGc] |!>(! (C2 =D!>)! [G,CE]2) z (=B,3 [E,C]2)!f! !>!c | %9
!>(! (A>GF!>)! [=B,G]2!p! [G,C-]) (C2 =D [C=E]) z z | %10
 z [G,=B,]2 z C2 z!>(! [=EGc=e] z z [FAcf]!>)! z!f! | %11
!sfz!!>(! (!arpeggio![B,DG]3!>)! [A,CF]2) z x6 | %12
[K:treble]!<(! [F,A,F]2 z z ([C=E]!<)!!>(![DF]) z E2 z!>)!"_cresc." ([A,F]G) | %13
!<(! A [B,B]2!<)! [=Ec]2!f! ([E=e] [Ff][Gg][Aa] [Gg]2) z | %14
!p!!<(! [CF]3 [DFG]3!<)!!>(! [B,=E]2 z z ([A,C]!>)!F) | %15
!f! .[dd'].[cc'].[Bb] .[Aa].[Gg].[Ff] .[=E=e].[Ff].[Gg] (C2 B, | %16
 [F,A,]2) z"_cresc." G>AG!f! !trill(!T=e3{!fermata!=d!fermata!e} !fermata!f2 z | %17
!>(! ([B,DG]3!>)! [A,CF]2) z!p! x2 x4 | %18
[K:treble] [F,A,F] z z z ([C=E][DF]) z E x z"_cresc." ([A,F]G) | %19
 A [B,B]2 [C=Ec]2!f! ([E=e] [Ff][Gg][Aa] [Gg]2) z |!p! [CF]3 [DF]3 =E2 z z ([A,C]F) | %21
!mf! .d!>(!.c.B .A.G.F!>)!"_cresc." =E>!<(!FG [Cc][=D=d]!<)![E=e] | %22
!<(! [Ff][Gg][Aa] [Gdfg]>a!<)!g!f!!>(! c'>d'c' f'2!>)! z | %23
 [=DG]3 [C_E]2 z!>(! [C^Fc]3 [DG=B]2!>)! [CGc] | (C2 =D [G,CE]2) z (=B,3 C2)!f! !>!c | %25
 (A>GF [=B,G]2!p! [G,C-]) (C2 =D =E) z z | z [G,=B,]2 z C2 z [=EGc=e] z z !arpeggio![FAcf] z | %27
!>(! ([B,DG]3!>)! [A,CF]2) z!p! x6 | %28
[K:treble]!<(! [F,A,F]2 z z ([C=E]!<)![DF])!>(! z E z z ([A,F]!>)!G) | %29
!<(! A !>![B,B]2!<)! [C=Ec]2!f! ([E=e] [Ff][Gg][Aa] [Gg]2) z | %30
!p!!<(! [CF]3 [DFG]3!<)! [B,=E]2 !fermata!z z [A,C]F | %31
!f! (.[dd'].[cc'].[Bb] .[Aa].[Gg].[Ff] .[=E=e].[Ff].[Gg]) (C2 B,!p! | %32
 A,2) z G>AG !trill(!T=e3{=de} f2 z |] %33
V:3
 z (CB, A,G,F,) |!ped! (=E,3 F,2)!ped-up! z z (=E,[G,C]) z (C,[E,B,C]) | %2
!ped! F,, z z!ped-up! C,2 B,, C,3 F,,2 =E, | %3
!ped! .F,(_E,D,!ped!!ped-up! C,3)!ped-up!!ped! [F,A,C]3!ped-up!!ped! [=E,G,C]2 z!ped-up! | %4
 A,3 B,3 C2 z F,,2 z |!ped! [F,B,]3 [F,A,]3!ped-up! C,B,G,!ped! C,,B,G,!ped-up! | %6
 D,,A,F,{/B,,,} B,,C,D, CB,C !arpeggio![F,,C,A,]2 z | %7
"^un   poco meno" [=B,,G,]3 [C,G,]2 z!ped! =D,3-!ped! D,2!ped-up! E,, | %8
 =F,,3!ped! C,,2 z (G,,3 C,2) C,,!ped-up! | %9
!ped! F,,2 =D,-!ped-up!!ped! D,2 =E,,!ped-up! (F,,3!ped-up!!ped! C,) z z | %10
 (G,,3"^ten."!ped! !>!C,,2) F,!ped-up!!ped! (_DC_B,!ped-up!!ped! A,G,!ped-up!F,) | %11
!ped! (=E,3 F,2) z!p! z (=E,[G,C]) z (C,[E,B,C])!ped-up! | %12
!ped! F,,2 z C,2!ped-up! B,,!ped! C,3!ped-up! F,, z =E, | %13
!ped! F,_E,D,!ped-up!!ped!!sfz! [C,,C,]3!ped-up!!ped! [F,A,=D]3!ped-up! [=E,G,C]2 z | %14
 A,3 B,3!ped-up!!ped! C,2 z F,,2 z | %15
!ped! [F,-B,D=E]3!ped-up! [F,A,CF]3!ped! [C,G,B,]2!p! z!ped-up! C,3 | %16
 C,2 z G,3!ped! CB,C!ped-up!!ped! !arpeggio!!fermata!A,2 z | %17
!mf!!ped! (=E,3 F,2) z z (=E,[G,C]) z (C,[E,B,C])!ped-up! | %18
!ped! F,, z z C,2!ped-up! B,, C,3 F,,2 =E, |!ped! F,_E,D,!ped-up!!ped! C,3 [F,A,C]3 .[=E,G,C]2 z | %20
!<(! A,3 B,3!<)! C2 z F,,2 z | [F,B,D]3 [F,A,C]2 z C,B,A,!ped-up!!ped! C,,B,G, | %22
 D,,A,F,{/B,,,} B,,C,D, CB,C !arpeggio!A,2 z | %23
"^un   poco meno" [=B,,G,]3 [C,G,]2 z!ped! =D,3-!ped! D,2!ped-up! E,,!ped-up! | %24
 (!>!F,,3!ped! C,,2) z (G,,3 C,2) C,,!ped-up! | %25
!ped! F,,2 =D,-!ped-up!!ped! D,2 =E,,!ped-up! (F,,3!ped-up!!ped! C,) z z | %26
"^rit." (G,,3"^ten."!ped! C,,2)!f! F,!ped-up!!ped! (_DC_B,!ped-up!!ped! A,G,!ped-up!F,) | %27
!ped! (=E,3 F,2) z z (=E,[G,C]) z (C,[E,B,C])!ped-up! | %28
!ped! F,,2 z C,2!ped-up! B,,!ped! C,3!ped-up! F,,2 =E, | %29
!ped! F,_E,D,!ped-up!!ped!!sfz! [C,,C,]3!ped-up! [F,=B,=D]3 [G,C=E]2 z | %30
 A,3 B,3!ped-up!!sfz!!ped! C,2"^col canto" !fermata!z F,,2 z | %31
 [F,B,D=E]3 [F,A,CF]3!ped! [C,G,B,]3!ped-up! C,3- | %32
 C,2 z G,3!ped! CB,C!ped-up!!ped! !arpeggio!A,2 z |] %33
V:4
 x6 | x6 C,2 B,, A,,2 G,, | x12 | x6 C,3- C,2 x | x12 | x6 C,2 x4 | x6 C,3 x3 | x6 =A,,3 G,,2 x | %8
 x12 | x2 A,, G,,2 x7 | x12 | x6 C,2 B,, A,,2 G,, | x12 | x6 C,3- C,2 x | x12 | x9 (C,,=D,,=E,, | %16
 F,,)G,,A,, B,,C,D, C,3 !arpeggio![F,,C,]2 x | x6 .C,2 B,, A,,2 G,, | x12 | x6 C,3- C,2 x | x12 | %21
 x6 C,2 x4 | x6 .C,3 !arpeggio![F,,C,]2 x | x6 .=A,,3 G,,2 x | x12 | x2 A,, G,,2 x7 | x12 | %27
 x6 C,2 B,, A,,2 G,, | x12 | x6 C,3- C,2 x | x12 | x9 (C,,=D,,=E,, | %32
 .F,,).G,,.A,, .B,,.C,.D, C,3 !arpeggio![F,,C,]2 z |] %33
V:5
 x6 | x12 |[K:treble] x7 (CB,) x3 | FGF x9 | x12 | D3 C3 x6 | x6 [c=e]3 f2 x | x12 | %8
 A,3 x3 G,2 F, x3 | [A,C]2 C x3 A,3 G, x2 | x12 | x12 |[K:treble] x7 (CB,) x3 | FGF C3 x6 | z12 | %15
 x9 =E,F,G, | x3 F3 !trill)![=Ec]3 [Fc]2 x | x12 |[K:treble] x7 (CB,) x3 | FGF x9 | x12 | x12 | %22
 x6 [c=e]3 f2 x | x12 | _A,3 x3 G,2 F, E,2 x | [A,C]2 C x3 A,3 [G,C] x2 | x12 | x12 | %28
[K:treble] x7 (CB,) x3 | FGF x9 | x12 | x9 =E,F,G, | F,2 x F3 !trill)![=Ec]3 [Fc]2 x |] %33

